packages/landing/src/resources/img/system.svg

<?xml version="1.0" encoding="UTF-8" standalone="no"?>
<svg width="70px" height="70px" viewBox="0 0 70 70" version="1.1" xmlns="http://www.w3.org/2000/svg" xmlns:xlink="http://www.w3.org/1999/xlink">
    <!-- Generator: Sketch 41 (35326) - http://www.bohemiancoding.com/sketch -->
    <title>Slice</title>
    <desc>Created with Sketch.</desc>
    <defs>
        <linearGradient x1="23.0476071%" y1="6.44244491%" x2="86.025711%" y2="94.5484564%" id="linearGradient-1">
            <stop stop-color="#FEFFFF" offset="0%"></stop>
            <stop stop-color="#ECF6FD" offset="100%"></stop>
        </linearGradient>
    </defs>
    <g id="Page-1" stroke="none" stroke-width="1" fill="none" fill-rule="evenodd">
        <ellipse id="Oval-24" stroke="#137CBD" stroke-width="2" fill="url(#linearGradient-1)" cx="35" cy="35" rx="30" ry="29"></ellipse>
        <ellipse id="Oval-24-Copy" stroke="#137CBD" stroke-width="2" cx="35" cy="35" rx="23" ry="22"></ellipse>
        <ellipse id="Oval-24-Copy-2" stroke="#137CBD" stroke-width="2" cx="35" cy="35" rx="15" ry="14"></ellipse>
        <path d="M35,40.5999999 L33.8524654,42.017796 C33.5030719,42.4494768 33.1183354,42.3691112 32.9889854,41.8207124 L32.8010982,41.0241365 C32.6736049,40.4836094 32.1705371,40.2343672 31.6611332,40.4751583 L30.9211994,40.8249191 C30.4191075,41.062254 30.1073413,40.8229161 30.2287423,40.272703 L30.4050831,39.4734917 C30.5247415,38.9311763 30.1796352,38.4883439 29.6162028,38.4842672 L28.79779,38.4783455 C28.2424451,38.4743273 28.0653982,38.1234211 28.4135053,37.6803701 L28.9191476,37.0368171 C29.2622579,36.6001256 29.1434657,36.0514114 28.6375995,35.8032742 L27.9028043,35.442843 C27.4041993,35.1982676 27.3969381,34.8052942 27.9028043,34.557157 L28.6375995,34.1967258 C29.1362045,33.9521503 29.2672546,33.4062339 28.9191476,32.9631829 L28.4135053,32.3196299 C28.0703949,31.8829385 28.2343576,31.5257312 28.79779,31.5216545 L29.6162028,31.5157328 C30.1715478,31.5117146 30.5264841,31.0767214 30.4050831,30.5265083 L30.2287423,29.727297 C30.1090839,29.1849816 30.4117956,28.9342897 30.9211994,29.1750809 L31.6611332,29.5248417 C32.1632252,29.7621765 32.6717482,29.5242623 32.8010982,28.9758635 L32.9889854,28.1792876 C33.1164788,27.6387605 33.4979837,27.5442366 33.8524654,27.982204 L34.3673672,28.6183728 C34.7167606,29.0500536 35.2781512,29.0563402 35.6326328,28.6183728 L36.1475346,27.982204 C36.4969281,27.5505232 36.8816646,27.6308888 37.0110146,28.1792876 L37.1989018,28.9758635 C37.3263951,29.5163906 37.8294629,29.7656328 38.3388668,29.5248417 L39.0788006,29.1750809 C39.5808925,28.937746 39.8926587,29.1770839 39.7712577,29.727297 L39.5949169,30.5265083 C39.4752585,31.0688237 39.8203648,31.5116561 40.3837972,31.5157328 L41.20221,31.5216545 C41.7575549,31.5256727 41.9346018,31.8765789 41.5864947,32.3196299 L41.0808524,32.9631829 C40.7377421,33.3998744 40.8565343,33.9485886 41.3624005,34.1967258 L42.0971957,34.557157 C42.5958007,34.8017324 42.6030619,35.1947058 42.0971957,35.442843 L41.3624005,35.8032742 C40.8637955,36.0478497 40.7327454,36.5937661 41.0808524,37.0368171 L41.5864947,37.6803701 C41.9296051,38.1170615 41.7656424,38.4742688 41.20221,38.4783455 L40.3837972,38.4842672 C39.8284522,38.4882854 39.4735159,38.9232786 39.5949169,39.4734917 L39.7712577,40.272703 C39.8909161,40.8150184 39.5882044,41.0657103 39.0788006,40.8249191 L38.3388668,40.4751583 C37.8367748,40.2378235 37.3282518,40.4757377 37.1989018,41.0241365 L37.0110146,41.8207124 C36.8835212,42.3612395 36.5020163,42.4557634 36.1475346,42.017796 L35,40.5999999 Z" id="Star" fill="#137CBD"></path>
        <circle id="path-2" stroke="#137CBD" stroke-width="2" fill="#FFFFFF" cx="40.5" cy="22.5" r="3.5"></circle>
        <circle id="path-4" stroke="#137CBD" stroke-width="2" fill="#FFFFFF" cx="14.5" cy="43.5" r="3.5"></circle>
        <circle id="path-6" stroke="#137CBD" stroke-width="2" fill="#FFFFFF" cx="57.5" cy="54.5" r="3.5"></circle>
    </g>
</svg>

<svg width="70" height="70" viewBox="0 0 70 70" xmlns="http://www.w3.org/2000/svg">
    <title>
        Slice
    </title>
    <defs>
        <linearGradient x1="23.048%" y1="6.442%" x2="86.026%" y2="94.548%" id="a">
            <stop stop-color="#FEFFFF" offset="0%"/>
            <stop stop-color="#ECF6FD" offset="100%"/>
        </linearGradient>
    </defs>
    <g fill="none" fill-rule="evenodd">
        <ellipse stroke="#137CBD" stroke-width="2" fill="url(#a)" cx="35" cy="35" rx="30" ry="29"/>
        <ellipse stroke="#137CBD" stroke-width="2" cx="35" cy="35" rx="23" ry="22"/>
        <ellipse stroke="#137CBD" stroke-width="2" cx="35" cy="35" rx="15" ry="14"/>
        <path d="M35 40.6l-1.148 1.418c-.349.431-.734.351-.863-.197l-.188-.797c-.127-.54-.63-.79-1.14-.549l-.74.35c-.502.237-.814-.002-.692-.552l.176-.8c.12-.542-.225-.985-.789-.989l-.818-.006c-.556-.004-.733-.355-.384-.798l.505-.643c.343-.437.224-.986-.281-1.234l-.735-.36c-.499-.245-.506-.638 0-.886l.735-.36c.498-.245.63-.79.281-1.234l-.505-.643c-.344-.437-.18-.794.384-.798l.818-.006c.556-.004.91-.44.79-.99l-.177-.799c-.12-.542.183-.793.692-.552l.74.35c.502.237 1.01 0 1.14-.55l.188-.796c.127-.54.509-.635.863-.197l.515.636c.35.432.911.438 1.266 0l.515-.636c.349-.431.734-.351.863.197l.188.797c.127.54.63.79 1.14.549l.74-.35c.502-.237.814.002.692.552l-.176.8c-.12.542.225.985.789.989l.818.006c.556.004.733.355.384.798l-.505.643c-.343.437-.224.986.281 1.234l.735.36c.499.245.506.638 0 .886l-.735.36c-.498.245-.63.79-.281 1.234l.505.643c.344.437.18.794-.384.798l-.818.006c-.556.004-.91.44-.79.99l.177.799c.12.542-.183.793-.692.552l-.74-.35c-.502-.237-1.01 0-1.14.55l-.188.796c-.127.54-.509.635-.863.197L35 40.6z" fill="#137CBD"/>
        <circle stroke="#137CBD" stroke-width="2" fill="#FFF" cx="40.5" cy="22.5" r="3.5"/>
        <circle stroke="#137CBD" stroke-width="2" fill="#FFF" cx="14.5" cy="43.5" r="3.5"/>
        <circle stroke="#137CBD" stroke-width="2" fill="#FFF" cx="57.5" cy="54.5" r="3.5"/>
    </g>
</svg>
